!!!COM: Schiørring, Niels
!!!CDT: 1743-1798
!!!OPR@@DA: Choral-Bog
!!!ONM: 70
!!!OTL@@DA: Naar min Tiid og Srund er
**kern	**fb	**kern	**kern	**kern	**kern	**kern	**kern	**kern
*part6	*part6	*part6	*part5	*part5	*part4	*part3	*part2	*part1
*staff8	*	*staff7	*staff6	*staff5	*staff4	*staff3	*staff2	*staff1
*clefF4	*	*clefC1	*clefF4	*clefC1	*clefF4	*clefC4	*clefC3	*clefC1
*mclefF4	*	*mclefG2	*mclefF4	*mclefG2	*mclefF4	*mclefGv2	*mclefG2	*mclefG2
*k[f#]	*	*k[f#]	*k[f#]	*k[f#]	*k[f#]	*k[f#]	*k[f#]	*k[f#]
*G:	*	*G:	*G:	*G:	*G:	*G:	*G:	*G:
*M4/4	*	*M4/4	*M4/4	*M4/4	*M4/4	*M4/4	*M4/4	*M4/4
*met(c)	*	*met(c)	*met(c)	*met(c)	*met(c)	*met(c)	*met(c)	*met(c)
*MM180	*	*MM180	*MM180	*MM180	*MM180	*MM180	*MM180	*MM180
*	*	*	*^	*^	*	*	*	*
2G	.	2g	2B	2G	2g	2d	2G	2B	2d	2g
=1	=1	=1	=1	=1	=1	=1	=1	=1	=1	=1
2F#	6	2d	2A	2F#	2d	[2d	2F#	2A	[2d	2d
2E	7	2g	2G	2E	2g	4d]	2E	2G	(4d]	2g
.	#6\	.	.	.	.	4c#X	.	.	4c#X)	.
=2	=2	=2	=2	=2	=2	=2	=2	=2	=2	=2
2D	.	2f#	2A	2D	2f#	2d	2D	2A	2d	2f#
2BB	6	2g	[2G	2BB	2g	2d	2BB	[2G	2d	2g
=3	=3	=3	=3	=3	=3	=3	=3	=3	=3	=3
2AA	7	2a	4G]	2AA	2a	2c	2AA	4G]	2c	2a
.	6	.	4F#	.	.	.	.	4F#	.	.
2GG	n7	2b	2Fn	2GG	2b	2d	2GG	2F	2d	2b
=4	=4	=4	=4	=4	=4	=4	=4	=4	=4	=4
*	*	*	*	*	*	*^	*	*	*	*
2C	.	2g	2E	2C	2g	2e	2c\	2C	2E	2e	2g
*	*	*	*	*	*	*v	*v	*	*	*	*
2G	.	2g	2B	2G	2g	2d	2G	2B	2d	2g
=5	=5	=5	=5	=5	=5	=5	=5	=5	=5	=5
2F#	6	2a	2d	2F#	2a	2f#	2F#	2d	2d	2a
2Fn	2	2b	2d	2Fn	2b	2g	2Fn	2d	2g	2b
=6	=6	=6	=6	=6	=6	=6	=6	=6	=6	=6
2E	6	2cc	2e	2E	2cc	2g	2E	2e	2g	2cc
2F#Xi	6	2dd	2d	2F#Xi	2dd	[2a	2F#Xi	2d	[2a	2dd
=7	=7	=7	=7	=7	=7	=7	=7	=7	=7	=7
2G	9	1b	1ryy	2G	2d	4a]	(2G	2d	(4a]	1b
.	8	.	.	.	.	2g	.	.	2g	.
2C#X	7 5	.	.	2C#X	[2e	.	2C#X)	[2e	.	.
.	.	.	.	.	.	[4g	.	.	[4g)	.
=	=	=	=	=	=	=	=	=	=	=
2D	9 4	2a	2ryy	2D	4e]	4g]	2D	(4e]	(4g]	2a
.	8 3	.	.	.	4d	4f#	.	4d)	4f#)	.
=8:|!	=8:|!	=8:|!	=8:|!	=8:|!	=8:|!	=8:|!	=8:|!	=8:|!	=8:|!	=8:|!
2GG	.	2b	2ryy	2GG	2d	2g	2GG	2d	2g	2b
=9	=9	=9	=9	=9	=9	=9	=9	=9	=9	=9
2BB	6	2b	1ryy	2BB	2d	2g	2BB	2d	2g	2b
2D	.	2a	.	2D	2d	2f#	2D	2d	2f#	2a
=10	=10	=10	=10	=10	=10	=10	=10	=10	=10	=10
*	*	*	*	*	*	*	*^	*	*	*
2FF#	5	2cc	1ryy	2FF#	2d	2a	2F#	2FF#	2d	2a	2cc
2GG	.	2b	.	2GG	2d	2g	2G	2GG	2d	2g	2b
*	*	*	*	*	*	*	*v	*v	*	*	*
=11	=11	=11	=11	=11	=11	=11	=11	=11	=11	=11
2C	6	2a	2c	2C	2a	2e	2C	2e	2e	2a
2C#X	5	2g	2A	2C#X	2g	2e	2C#X	2A	2e	2g
=12	=12	=12	=12	=12	=12	=12	=12	=12	=12	=12
2D	.	2f#	2A	2D	2f#	2d	2D	2A	2d	2f#
2G	.	2b	2B	2G	2b	2d	2G	2B	2d	2b
=13	=13	=13	=13	=13	=13	=13	=13	=13	=13	=13
2G#X	5	2b	2d	2G#X	2b	1e	2G#X	2d	2e	2b
2A	.	2a	2c	2A	2a	.	2A	2c	2e	2a
=14	=14	=14	=14	=14	=14	=14	=14	=14	=14	=14
2F#	5	2cc	2d	2F#	2cc	2a	2F#	2A	2d	2cc
2Gni	.	2b	4d	2Gni	2b	2d	2Gni	2G	2d	2b
.	.	.	4G	.	.	.	.	.	.	.
=15	=15	=15	=15	=15	=15	=15	=15	=15	=15	=15
2D#X	5	2a	2F#	2D#X	2a	2B	2D#X	2F#	2B	2a
2E	.	2g	2E	2E	2g	2B	2E	2E	(4B	2g
.	.	.	.	.	.	.	.	.	4e)	.
=16	=16	=16	=16	=16	=16	=16	=16	=16	=16	=16
2BB	#	2f#	2D#X	2BB	2f#	2B	2BB	2F#	2d#X	2f#
2BB	6 n	2dni	2G	2BB	2dni	[2dni	2BB	2G	[2dn	2d
=17	=17	=17	=17	=17	=17	=17	=17	=17	=17	=17
2C	9	2e	2G	2C	2e	4d]	2C	2G	(4d]	2e
.	8	.	.	.	.	4c	.	.	4c)	.
2AA	6	2f#	2A	2AA	2f#	2c	2AA	2A	2c	2f#
=18	=18	=18	=18	=18	=18	=18	=18	=18	=18	=18
2BB	6	2g	[1G	2BB	2g	1d	2BB	2G	2d	2g
2GG	.	2b	.	2GG	2b	.	2GG	[2G	2d	2b
=19	=19	=19	=19	=19	=19	=19	=19	=19	=19	=19
2C	6 5	1a	2G]	2C	1a	2e	(2C	(2G]	(2e	1a
2D	.	.	2F#	2D	.	2d	2D)	2F#)	2d)	.
=20	=20	=20	=20	=20	=20	=20	=20	=20	=20	=20
*	*	*	*	*	*	*^	*	*	*	*
2GG	.	2g	2G	2GG	2g	2d	2B\	2GG	2B	2d	2g
*	*	*	*v	*v	*	*	*	*	*	*	*
*	*	*	*	*v	*v	*v	*	*	*	*
==	==	==	==	==	==	==	==	==
*-	*-	*-	*-	*-	*-	*-	*-	*-
!!!system-decoration: {(s1,s2,s3,s4)}{(s5,s6)}{(s7,s8)}
!!!RDF**kern: i = editorial accidental
!!!RDF**kern: > = above
!!!RDF**kern: < = below
!!!AGN: chorale
!!!EED: Derek Remeš
!!!EED2: Victor Phan
!!!END: 2023/11/28
!!!ENC: Wolfgang Drescher
!!!EEV: 2023/12/08
!!!title: @{ONM}. @{OTL}